!!!!SEGMENT: pl-kk--kk-i-388--003_anonim--credo-no-3.krn
!!!id: 18xx:1400
!!!COM: Anonim
!!!COM-rism: pe30004985
!!!CDT:
!!!CNT:
!!!OTL: Credo No 3
!!!PDT:
!!!SMS-siglum: PL-Kk
!!!SMS-shelfmark: Kk.I.388
!!!NIFC-rismID: 1001140641
!!!URL-scan: http://repozytorium.nifc.pl/skany/pl-kk-nut--i-388
!!!ONB-nifc:
!!!SMS-variant:
!!!SMS-altvar:
**kern	**text	**kern	**text	**kern	**text	**kern	**text
*part4	*part4	*part3	*part3	*part2	*part2	*part1	*part1
*staff4	*staff4	*staff3	*staff3	*staff2	*staff2	*staff1	*staff1
*I"Basso.	*	*I"Tenore.	*	*I"Alto.	*	*I"Soprano.	*
*I'B	*	*I'T	*	*I'A	*	*I'S	*
*clefF4	*	*clefC4	*	*clefC3	*	*clefC1	*
*k[b-]	*	*k[b-]	*	*k[b-]	*	*k[b-]	*
*F:	*	*	*	*F:	*	*F:	*
*M3/4	*	*M3/4	*	*M3/4	*	*M3/4	*
=1	=1	=1	=1	=1	=1	=1	=1
!	!	!	!	!	!	!LO:TX:t=P:problem:all\right:global	!
4F\	Cre-	4c\	Cre-	4f\	Cre-	4a\	Cre-
4F\	-do	4c\	-do	4f\	-do	4a\	-do
4F\	in	4c\	in	4f\	in	4a\	in
=2	=2	=2	=2	=2	=2	=2	=2
*2\right	*	*2\right	*	*2\right	*	*2\right	*
2E\	u-	2c\	u-	2g\	u-	2cc\	u-
4E\	-num	4c\	-num	4g\	-num	4cc\	-num
=3	=3	=3	=3	=3	=3	=3	=3
2.D\	De-	4A\	De-	2.f\	De-	2.ff\	De-
.	.	4B-\	.	.	.	.	.
.	.	4Bn\	.	.	.	.	.
=4	=4	=4	=4	=4	=4	=4	=4
2C/	-um.	2c\	-um	2g\	-um	4ee\	-um,
.	.	.	.	.	.	4r	.
4r	.	4r	.	4r	.	4r	.
=5	=5	=5	=5	=5	=5	=5	=5
!	!	!LO:TX:a:t=1.	!	!LO:TX:a:t=2.	!	!LO:TX:a:t=3.	!
!	!	!	!	!LO:N:vis=0	!	!LO:N:vis=0	!
4F\	Pa-	2.r	.	1.r	.	1.r	.
4F\	-trem	.	.	.	.	.	.
4F\	om-	.	.	.	.	.	.
=6	=6	=6	=6	=6	=6	=6	=6
4F\	-ni-	4c\	Pa-	.	.	.	.
!LO:LB:g=original	!	!	!	!	!	!	!
8E\L	.	4c\	-trem	.	.	.	.
8D\J	.	.	.	.	.	.	.
4E\	-po-	4c\	om-	.	.	.	.
!	!	!LO:LB:g=original	!	!	!	!	!
=7	=7	=7	=7	=7	=7	=7	=7
2D\	-ten-	4c\	-ni-	4f\	fa-	2.r	.
.	.	8B-\L	.	4f\	-cto-	.	.
.	.	8A\J	.	.	.	.	.
4G\	.	4B-\	-po-	4f\	-rem	.	.
=8	=8	=8	=8	=8	=8	=8	=8
2C/	-tem	4G/	-ten-	4f\	ce-	4cc\	fa-
.	.	4G/	-tem	8e\L	.	4cc\	-cto-
.	.	.	.	8d\J	.	.	.
4C/	fac-	4c\	fa-	4e\	-li	4cc\	-rem
=9	=9	=9	=9	=9	=9	=9	=9
!	!	!LO:N:vis=2.	!	!	!	!	!
2F\	-to-	2c\	-cto-	4f\	fa-	2a\	ce-
.	.	.	.	4f\	-cto-	.	.
4E\	-rem	4c\	-rem	4g\	-rem	4cc\	-li
!	!	!	!	!LO:LB:g=original	!	!	!
=10	=10	=10	=10	=10	=10	=10	=10
4D/	ce-	4Bn\	ce-	4g\	ce-	4ff\	ce-
4BBn/	-li	4d\	-li	4g\	-li	4ff\	-li
4C/	et	4c\	et	4g\	et	4ee\	et
!	!	!	!	!	!	!LO:LB:g=original	!
=11	=11	=11	=11	=11	=11	=11	=11
2F\	ter-	2.d\	ter-	2.a\	ter-	2dd\	ter-
4F#X\	.	.	.	.	.	4cc\	.
=12	=12	=12	=12	=12	=12	=12	=12
4G\	-re,	2d\	-re	4g\	-re,	2bn\	-re,
4r	.	.	.	4g\	vi-	.	.
4r	.	4r	.	4g\	-si-	4r	.
=13	=13	=13	=13	=13	=13	=13	=13
!LO:TX:a:t=1.	!	!	!	!	!	!	!
2.r	.	2Bn\	vi-	2g\	-bi-	4.g\	vi-
.	.	.	.	.	.	8bn\	.
.	.	4B\	-si-	4g\	-li-	8dd\L	-si-
.	.	.	.	.	.	8ff\J	.
!LO:LB:g=original	!	!LO:LB:g=original	!	!	!	!	!
=14	=14	=14	=14	=14	=14	=14	=14
4.C\	vi-	4.c\	-bi-	2.g\	-um,	8ff\	-bi-
.	.	.	.	.	.	8ee\	-li-
.	.	.	.	.	.	4cc\	-um
8E\	-[[si]]-	8c\	-li-	.	.	.	.
8G\L	-si-	4c\	-um,	.	.	4r	.
8c\J	.	.	.	.	.	.	.
=15	=15	=15	=15	=15	=15	=15	=15
8c\	-bi-	4.d\	et	4.g\	et	4.g\	et
8Bn\	-li-	.	.	.	.	.	.
4G\	-um,	.	.	.	.	.	.
.	.	8d\	in-	8g\	in-	8bn\	in-
4r	.	8d\	-vi-	8g\	-vi-	8dd\	-vi-
.	.	8d\	-si-	8g\	-si-	8ff\	-si-
=16	=16	=16	=16	=16	=16	=16	=16
4.C/	et	4.c\	-bi-	4.g\	-bi-	8ff\	-bi-
.	.	.	.	.	.	8ee\	-li-
.	.	.	.	.	.	4cc\	-um
8E\	in-	8c\	-li-	8g\	-li-	.	.
8G\L	-vi-	4c\	-um	4g\	-um	4r	.
8c\J	-si-	.	.	.	.	.	.
=17	=17	=17	=17	=17	=17	=17	=17
8c\	-bi-	2d\	in-	2g\	in-	4.g\	et
8Bn\	-li-	.	.	.	.	.	.
4G\	-um	.	.	.	.	.	.
.	.	.	.	.	.	8bn\	in-
4r	.	8d\	-vi-	8g\	-vi-	8dd\	-vi-
.	.	8d\	-si-	8g\	-si-	8ff\	-si-
!	!	!	!	!	!	!LO:LB:g=original	!
=18	=18	=18	=18	=18	=18	=18	=18
8c\	vi-	4c\	-bi-	4g\	-bi-	4ee\	-bi-
8c\	-si-	.	.	.	.	.	.
4G\	-bi-	4d\	-li-	4f\	-li-	4bn\	-li-
8A\	-li-	4c\	-um	4e\	-um	4cc\	-um
8A\	-um	.	.	.	.	.	.
!LO:LB:g=original	!	!	!	!LO:LB:g=original	!	!	!
=19	=19	=19	=19	=19	=19	=19	=19
4F\	om-	4A/	om-	4f\	om-	4dd\	om-
4G\	.	4G/	.	4e\	.	4cc\	.
4GG/	-ni-	4G/	-ni-	4d\	-ni-	4bn\	-ni-
!	!	!LO:LB:g=original	!	!	!	!	!
=20	=20	=20	=20	=20	=20	=20	=20
2C/	-um,	2G/	-um.	2e\	-um,	2cc\	-um,
4r	.	4r	.	4r	.	4r	.
=21||	=21||	=21||	=21||	=21||	=21||	=21||	=21||
4A\	Et	4e\	Et	4a\	Et	4cc\	Et
4A\	in-	4e\	in-	4a\	in-	4cc\	in-
4A\	-car-	4e\	-car-	4a\	-car-	4cc\	-car-
=22	=22	=22	=22	=22	=22	=22	=22
4.E\	-na-	4.d\	-na-	4.g#X\	-na-	4.bn\	-na-
8E\	-tus	8d\	-tus	8g#\	-tus	8b\	-tus
8E\	est	8d\	est	8g#\	est	8b\	est
8E\	de	8d\	de	8g#\	de	8b\	de
=23	=23	=23	=23	=23	=23	=23	=23
4F\	spi-	4c\	Spi-	4a\	Spi-	4a\	Spi-
4F\	-ri-	4c\	-ri-	4f\	-ri-	4a\	-ri-
4D\	-tu	4d\	-tu	4f\	-tu	4bn\	-tu
=24	=24	=24	=24	=24	=24	=24	=24
4E\	san-	4c\	san-	4e\	san-	4a\	san-
4E\	-cto	4Bn\	-ctus,	4e\	-cto,	4g#X\	-cto
4r	.	4r	.	4r	.	4r	.
=25	=25	=25	=25	=25	=25	=25	=25
4.D\	ex	4.Bn\	ex	4.f\	ex	4.g#X\	ex
8D\	Ma-	8B\	Ma-	8f\	Ma-	8g#\	Ma-
!LO:LB:g=original	!	!	!	!	!	!	!
8D\	-ri-	8B\	-ri-	8f\	-ri-	8g#\	-ri-
8D\	-a	8B\	-a	8f\	-a	8g#\	-a
!	!	!LO:LB:g=original	!	!	!	!LO:LB:g=original	!
=26	=26	=26	=26	=26	=26	=26	=26
4.C/	Vir-	4.c\	Vir-	4.e\	Vir-	4.a\	Vir-
8C/	-gi-	8c\	-gi-	8e\	-gi-	8a\	-gi-
4C/	-ne	4c\	-ne	4e\	-ne	4a\	-ne
!	!	!	!	!LO:LB:g=original	!	!	!
=27	=27	=27	=27	=27	=27	=27	=27
4F\	et	4A\	et	4e-X\	et	4cc\	et
4F\	Ho-	4A\	Ho-	4e-\	Ho-	4cc\	Ho-
4F\	-mo	4A\	-mo	4e-\	-mo	4cc\	-mo
=28	=28	=28	=28	=28	=28	=28	=28
2F#X\	ho-	4A\	Ho-	2e-X\	Ho-	4cc\	Ho-
.	.	4Bn\	.	.	.	4bn\	.
4F#\	-mo	4c\	-mo	4e-\	-mo	4a\	-mo
=29	=29	=29	=29	=29	=29	=29	=29
2.G\	fa-	2.c\	fa-	2.en\	fa-	2.g\	fa-
=30	=30	=30	=30	=30	=30	=30	=30
2.GG/	ctus	2d\	.	2f\	.	4g\	.
.	.	.	.	.	.	4a\	.
.	.	4d\	-ctus	4f\	-ctus	4bn\	-ctus
=31	=31	=31	=31	=31	=31	=31	=31
2C/	est.	2c\	est,	2e\	est,	2cc\	est,
4r	.	4r	.	4r	.	4r	.
=32||	=32||	=32||	=32||	=32||	=32||	=32||	=32||
4F\	Et	4c\	Et	4f\	Et	4a\	Et
8F\	re-	8c\	re-	8f\	re-	8a\	re-
8F\	-sur-	8c\	-sur-	8f\	-sur-	8a\	-su[r]-
!	!	!LO:LB:g=original	!	!	!	!	!
8F\	-re-	8c\	-re-	8f\	-re-	8a\	-re-
8F\	-xit	8c\	-xit	8f\	-xit	8a\	-xit
!LO:LB:g=original	!	!	!	!	!	!	!
=33	=33	=33	=33	=33	=33	=33	=33
4E\	ter-	4c\	ter-	4g\	ter-	4cc\	ter-
4E\	-ti-	4c\	-ti-	4g\	-ti-	4cc\	-ti-
4E\	-a	4c\	-a	4g\	-a	4cc\	-a
!	!	!	!	!	!	!LO:LB:g=original	!
=34	=34	=34	=34	=34	=34	=34	=34
2.D\	di-	4A\	di-	2.f\	di-	2.ff\	di-
.	.	4B-X\	.	.	.	.	.
.	.	4Bn\	.	.	.	.	.
=35	=35	=35	=35	=35	=35	=35	=35
2C/	-e,	4c\	-e,	2g\	-e,	4ee\	-e
.	.	4c\	et	.	.	4r	.
4r	.	4c\	as-	4r	.	4r	.
!	!	!	!	!LO:LB:g=original	!	!	!
=36	=36	=36	=36	=36	=36	=36	=36
!	!	!	!	!	!	!LO:TX:t=P:problem:brak taktu	!
4.C/	et	2.c\	-cen-	2e\	et	2.ryy	.
8E\	.	.	.	.	.	.	.
8G\L	as-	.	.	4e\	as-	.	.
8B-X\J	.	.	.	.	.	.	.
=37	=37	=37	=37	=37	=37	=37	=37
8B-\L	-cen-	2c\	-dit	4f\	-cen-	4.f/	et
8A\J	.	.	.	.	.	.	.
4F\	-dit	.	.	4f\	-dit	.	.
.	.	.	.	.	.	8a\	.
4r	.	4c\	as-	4f\	in	8cc\L	as-
.	.	.	.	.	.	8ff\J	.
=38	=38	=38	=38	=38	=38	=38	=38
4.C/	in	2.c\	-cen-	2.g\	ce-	8ff\L	-cen-
.	.	.	.	.	.	8een\J	.
.	.	.	.	.	.	4cc\	-dit
8E\	.	.	.	.	.	.	.
8G\L	.	.	.	.	.	4r	.
8B-\J	.	.	.	.	.	.	.
=39	=39	=39	=39	=39	=39	=39	=39
8B-\L	ce-	2c\	-dit	2f\	-lum	4.f\	in
8A\J	.	.	.	.	.	.	.
4F\	-lum,	.	.	.	.	.	.
.	.	.	.	.	.	8a\	.
4r	.	4c\	in	4f\	as-	8cc\L	.
.	.	.	.	.	.	8ff\J	.
!LO:LB:g=original	!	!LO:LB:g=original	!	!	!	!	!
=40	=40	=40	=40	=40	=40	=40	=40
4.C\	se-	2c\	ce-	2g\	-cen-	8ff\L	ce-
.	.	.	.	.	.	8ee\J	.
.	.	.	.	.	.	4cc\	-lum
8E\	.	.	.	.	.	.	.
8G\L	-det	4c\	-lum,	4g\	-dit,	4r	.
8B-\J	.	.	.	.	.	.	.
=41	=41	=41	=41	=41	=41	=41	=41
4A\	se-	4c\	se-	4f\	se-	4ff\	se-
4c#X\	-det	4g\	-det	4b-\	-det	4ee\	-det
4d\	ad	4f\	ad	4a\	ad	4ff\	ad
=42	=42	=42	=42	=42	=42	=42	=42
8B-\	dex-	8d\	dex-	8b-\	dex-	8gg\	dex-
16B-\	-te-	8d\	-teram	16b-\	-te-	16gg\	-te-
16B-\	-ram	.	.	16b-\	-ram	16gg\	-ram
4cn\	Pa-	2c\	Pa-	4a\	Pa-	4ff\	Pa-
4C/	.	.	.	4g\	.	4ee\	.
!	!	!	!	!	!	!LO:LB:g=original	!
=43	=43	=43	=43	=43	=43	=43	=43
4F\	-tris,	4c\	-tris,	4a\	-tris,	4ff\	-tris,
4F\	et	4r	.	4r	.	4r	.
4A\	.	4c\	et	4a\	et	4ff\	et
=44	=44	=44	=44	=44	=44	=44	=44
2c\	vi-	2c\	vi-	2g\	vi-	4ff\	vi-
.	.	.	.	.	.	8ee\L	.
.	.	.	.	.	.	8dd\J	.
4C/	-tam	4c\	-tam	4cc\	-tam	4ee\	-tam
!	!	!	!	!LO:LB:g=original	!	!	!
=45	=45	=45	=45	=45	=45	=45	=45
4r	.	4r	.	4r	.	4r	.
4D\	ven-	4r	.	4r	.	4r	.
4F\	.	4A\	ven-	4f\	ven-	4dd\	ven-
!LO:LB:g=original	!	!	!	!	!	!	!
=46	=46	=46	=46	=46	=46	=46	=46
2A\	-tu-	2A\	-tu-	2e\	-tu-	4dd\	-tu-
.	.	.	.	.	.	8cc\L	.
.	.	.	.	.	.	8bn\J	.
4AA/	-ri	4A\	-ri	4a\	-ri	4cc\	-ri
!	!	!LO:LB:g=original	!	!	!	!	!
=47	=47	=47	=47	=47	=47	=47	=47
4BBn/	se-	4A-X\	se-	4r	.	4dd\	se-
4C/	.	4An\	.	4f\	se-	4f/	-[[cu]]-
.	.	.	.	.	.	8qa/	.
4C/	-cu-	4B-X\	-cu-	4e\	-cu-	4g/	cu-
=48	=48	=48	=48	=48	=48	=48	=48
2F\	-li	2A\	-li	2f\	-li	4f/	-li
.	.	.	.	.	.	4r	.
4r	.	4r	.	4r	.	4r	.
=49	=49	=49	=49	=49	=49	=49	=49
2.F\	a-	2.A\	a-	2.f\	a-	2.cc\	a-
=50	=50	=50	=50	=50	=50	=50	=50
2.C/	-men	2.B-\	-men	2.g\	-men	2.ee\	-men,
=51	=51	=51	=51	=51	=51	=51	=51
2.D/	a-	2.A\	a-	2.f\	a-	2.ff\	a-
!	!	!	!	!	!	!LO:LB:g=original	!
=52	=52	=52	=52	=52	=52	=52	=52
2.BB-/	-men	2.B-\	-men	2.f\	-men	2.dd\	-men
=53	=53	=53	=53	=53	=53	=53	=53
2.C/	a-	2.A\	a-	2.f\	a-	2.cc\	a-
=54	=54	=54	=54	=54	=54	=54	=54
2.C/	.	2.B-\	.	2.c\	.	2.e/	.
=55	=55	=55	=55	=55	=55	=55	=55
2FF/	-men.	2A\	-men.	2c\	-men.	2f/	-men.
4r	.	4r	.	4r	.	4r	.
==	==	==	==	==	==	==	==
*-	*-	*-	*-	*-	*-	*-	*-
!!!system-decoration: [(s1,s2,s3,s4)]
!!!EED: Leszek Kubiak
!!!EST: 2021-01-15
!!!ENC: Katarzyna Serwa
!!!END: 2021-01-14
